images/ProcessIcons/Production.svg

<svg width="20" height="20" viewBox="0 0 20 20" fill="none" xmlns="http://www.w3.org/2000/svg">
<path d="M3.75 1.65385C3.75 1.48044 3.81585 1.31413 3.93306 1.19151C4.05027 1.06889 4.20924 1 4.375 1H8.125C8.29076 1 8.44973 1.06889 8.56694 1.19151C8.68415 1.31413 8.75 1.48044 8.75 1.65385V5.57692C8.75 5.75033 8.68415 5.91664 8.56694 6.03926C8.44973 6.16188 8.29076 6.23077 8.125 6.23077H4.375C4.20924 6.23077 4.05027 6.16188 3.93306 6.03926C3.81585 5.91664 3.75 5.75033 3.75 5.57692V1.65385ZM11.875 1C11.7092 1 11.5503 1.06889 11.4331 1.19151C11.3158 1.31413 11.25 1.48044 11.25 1.65385V5.57692C11.25 5.75033 11.3158 5.91664 11.4331 6.03926C11.5503 6.16188 11.7092 6.23077 11.875 6.23077H15.625C15.7908 6.23077 15.9497 6.16188 16.0669 6.03926C16.1842 5.91664 16.25 5.75033 16.25 5.57692V1.65385C16.25 1.48044 16.1842 1.31413 16.0669 1.19151C15.9497 1.06889 15.7908 1 15.625 1H11.875ZM12.5 4.92308V2.30769H15V4.92308H12.5ZM5 14.0769C5.33152 14.0769 5.64946 13.9391 5.88388 13.6939C6.1183 13.4487 6.25 13.1161 6.25 12.7692C6.25 12.4224 6.1183 12.0898 5.88388 11.8446C5.64946 11.5993 5.33152 11.4615 5 11.4615C4.66848 11.4615 4.35054 11.5993 4.11612 11.8446C3.8817 12.0898 3.75 12.4224 3.75 12.7692C3.75 13.1161 3.8817 13.4487 4.11612 13.6939C4.35054 13.9391 4.66848 14.0769 5 14.0769ZM11.25 12.7692C11.25 13.1161 11.1183 13.4487 10.8839 13.6939C10.6495 13.9391 10.3315 14.0769 10 14.0769C9.66848 14.0769 9.35054 13.9391 9.11612 13.6939C8.8817 13.4487 8.75 13.1161 8.75 12.7692C8.75 12.4224 8.8817 12.0898 9.11612 11.8446C9.35054 11.5993 9.66848 11.4615 10 11.4615C10.3315 11.4615 10.6495 11.5993 10.8839 11.8446C11.1183 12.0898 11.25 12.4224 11.25 12.7692ZM15 14.0769C15.3315 14.0769 15.6495 13.9391 15.8839 13.6939C16.1183 13.4487 16.25 13.1161 16.25 12.7692C16.25 12.4224 16.1183 12.0898 15.8839 11.8446C15.6495 11.5993 15.3315 11.4615 15 11.4615C14.6685 11.4615 14.3505 11.5993 14.1161 11.8446C13.8817 12.0898 13.75 12.4224 13.75 12.7692C13.75 13.1161 13.8817 13.4487 14.1161 13.6939C14.3505 13.9391 14.6685 14.0769 15 14.0769ZM0 12.7692C0 11.3819 0.526784 10.0515 1.46447 9.07052C2.40215 8.08956 3.67392 7.53846 5 7.53846H15C16.3261 7.53846 17.5979 8.08956 18.5355 9.07052C19.4732 10.0515 20 11.3819 20 12.7692C20 14.1565 19.4732 15.487 18.5355 16.4679C17.5979 17.4489 16.3261 18 15 18H5C3.67392 18 2.40215 17.4489 1.46447 16.4679C0.526784 15.487 0 14.1565 0 12.7692ZM5 8.84615C4.00544 8.84615 3.05161 9.25948 2.34835 9.9952C1.64509 10.7309 1.25 11.7288 1.25 12.7692C1.25 13.8097 1.64509 14.8075 2.34835 15.5433C3.05161 16.279 4.00544 16.6923 5 16.6923H15C15.9946 16.6923 16.9484 16.279 17.6517 15.5433C18.3549 14.8075 18.75 13.8097 18.75 12.7692C18.75 11.7288 18.3549 10.7309 17.6517 9.9952C16.9484 9.25948 15.9946 8.84615 15 8.84615H5Z" fill="black"/>
</svg>

<svg xmlns="http://www.w3.org/2000/svg" width="20" height="20" fill="none" xmlns:v="https://vecta.io/nano"><path d="M3.75 1.654a.67.67 0 0 1 .183-.462A.61.61 0 0 1 4.375 1h3.75a.61.61 0 0 1 .442.192.67.67 0 0 1 .183.462v3.923a.67.67 0 0 1-.183.462.61.61 0 0 1-.442.192h-3.75a.61.61 0 0 1-.442-.192.67.67 0 0 1-.183-.462V1.654zM11.875 1a.61.61 0 0 0-.442.192.67.67 0 0 0-.183.462v3.923a.67.67 0 0 0 .183.462.61.61 0 0 0 .442.192h3.75a.61.61 0 0 0 .442-.192.67.67 0 0 0 .183-.462V1.654a.67.67 0 0 0-.183-.462.61.61 0 0 0-.442-.192h-3.75zm.625 3.923V2.308H15v2.615h-2.5zM5 14.077c.332 0 .649-.138.884-.383a1.34 1.34 0 0 0 .366-.925 1.34 1.34 0 0 0-.366-.925c-.234-.245-.552-.383-.884-.383s-.649.138-.884.383a1.34 1.34 0 0 0-.366.925 1.34 1.34 0 0 0 .366.925c.234.245.552.383.884.383zm6.25-1.308a1.34 1.34 0 0 1-.366.925c-.234.245-.552.383-.884.383s-.649-.138-.884-.383a1.34 1.34 0 0 1-.366-.925 1.34 1.34 0 0 1 .366-.925c.234-.245.552-.383.884-.383s.649.138.884.383a1.34 1.34 0 0 1 .366.925zM15 14.077c.332 0 .649-.138.884-.383a1.34 1.34 0 0 0 .366-.925 1.34 1.34 0 0 0-.366-.925c-.234-.245-.552-.383-.884-.383s-.649.138-.884.383a1.34 1.34 0 0 0-.366.925 1.34 1.34 0 0 0 .366.925c.234.245.552.383.884.383zM0 12.769c0-1.387.527-2.718 1.464-3.699A4.89 4.89 0 0 1 5 7.538h10a4.89 4.89 0 0 1 3.535 1.532c.938.981 1.465 2.311 1.465 3.699s-.527 2.718-1.465 3.699A4.89 4.89 0 0 1 15 18H5a4.89 4.89 0 0 1-3.536-1.532C.527 15.487 0 14.157 0 12.769zm5-3.923c-.995 0-1.948.413-2.652 1.149S1.25 11.729 1.25 12.769s.395 2.038 1.098 2.774S4.005 16.692 5 16.692h10c.995 0 1.948-.413 2.652-1.149s1.098-1.734 1.098-2.774-.395-2.038-1.098-2.774S15.995 8.846 15 8.846H5z" fill="#000"/></svg>
